Newaita-dark/actions/16/edit-table-insert-row-below.svg

<?xml version="1.0" encoding="UTF-8"?>
<svg xmlns="http://www.w3.org/2000/svg" xmlns:xlink="http://www.w3.org/1999/xlink" width="16pt" height="16pt" viewBox="0 0 16 16" version="1.1">
<g id="surface1">
<path style=" stroke:none;fill-rule:nonzero;fill:rgb(74.117649%,74.117649%,74.117649%);fill-opacity:1;" d="M 0.828125 1.777344 C 0.828125 1.414062 1.121094 1.117188 1.488281 1.117188 L 14.386719 1.117188 C 14.753906 1.117188 15.050781 1.414062 15.050781 1.777344 L 15.050781 14.347656 L 15.050781 9.71875 L 14.058594 9.71875 L 14.058594 6.410156 L 10.75 6.410156 L 10.75 9.71875 L 9.757812 9.71875 L 9.757812 6.410156 L 6.449219 6.410156 L 6.449219 9.71875 L 5.457031 9.71875 L 5.457031 6.410156 L 1.820312 6.410156 L 1.820312 15.007812 L 1.488281 15.007812 C 1.121094 15.007812 0.828125 14.714844 0.828125 14.347656 Z M 1.820312 2.441406 L 1.820312 5.417969 L 5.457031 5.417969 L 5.457031 2.109375 L 2.148438 2.109375 C 1.964844 2.109375 1.820312 2.257812 1.820312 2.441406 Z M 6.449219 2.109375 L 6.449219 5.417969 L 9.757812 5.417969 L 9.757812 2.109375 Z M 10.75 2.109375 L 10.75 5.417969 L 14.058594 5.417969 L 14.058594 2.441406 C 14.058594 2.257812 13.910156 2.109375 13.726562 2.109375 Z M 10.75 2.109375 "/>
<path style=" stroke:none;fill-rule:nonzero;fill:rgb(100%,43.921569%,26.274511%);fill-opacity:1;" d="M 1.820312 15.007812 L 8.105469 15.007812 L 8.105469 14.015625 L 6.53125 14.015625 L 3.222656 10.710938 L 5.417969 10.710938 L 8.105469 13.394531 L 8.105469 11.992188 L 6.820312 10.710938 L 8.105469 10.710938 L 8.105469 9.71875 L 1.820312 9.71875 L 1.820312 10.710938 L 5.125 14.015625 L 1.820312 14.015625 Z M 1.820312 15.007812 "/>
<path style=" stroke:none;fill-rule:nonzero;fill:rgb(40.000001%,73.333335%,41.568628%);fill-opacity:1;" d="M 9.757812 12.363281 C 9.757812 12.089844 9.980469 11.867188 10.253906 11.867188 L 11.90625 11.867188 L 11.90625 10.214844 C 11.90625 9.9375 12.128906 9.71875 12.402344 9.71875 C 12.679688 9.71875 12.898438 9.9375 12.898438 10.214844 L 12.898438 11.867188 L 14.554688 11.867188 C 14.828125 11.867188 15.050781 12.089844 15.050781 12.363281 C 15.050781 12.636719 14.828125 12.859375 14.554688 12.859375 L 12.898438 12.859375 L 12.898438 14.511719 C 12.898438 14.789062 12.679688 15.007812 12.402344 15.007812 C 12.128906 15.007812 11.90625 14.789062 11.90625 14.511719 L 11.90625 12.859375 L 10.253906 12.859375 C 9.980469 12.859375 9.757812 12.636719 9.757812 12.363281 Z M 9.757812 12.363281 "/>
</g>
</svg>

<svg xmlns="http://www.w3.org/2000/svg" width="16pt" height="16pt" viewBox="0 0 16 16"><path d="M.828 1.777a.66.66 0 0 1 .66-.66h12.899c.367 0 .664.297.664.66v12.57V9.72h-.992V6.41H10.75V9.72h-.992V6.41H6.449V9.72h-.992V6.41H1.82v8.598h-.332a.657.657 0 0 1-.66-.66zm.992.664v2.977h3.637V2.109H2.148a.328.328 0 0 0-.328.332zm4.63-.332v3.309h3.308V2.109zm4.3 0v3.309h3.309V2.441a.332.332 0 0 0-.332-.332zm0 0" fill="#bdbdbd"/><path d="M1.82 15.008h6.285v-.992H6.531L3.223 10.71h2.195l2.687 2.684v-1.403L6.82 10.711h1.285v-.992H1.82v.992l3.305 3.305H1.82zm0 0" fill="#ff7043"/><path d="M9.758 12.363c0-.273.222-.496.496-.496h1.652v-1.652c0-.277.223-.496.496-.496.278 0 .496.219.496.496v1.652h1.657a.497.497 0 0 1 0 .992h-1.657v1.653a.492.492 0 0 1-.496.496.494.494 0 0 1-.496-.496v-1.653h-1.652a.497.497 0 0 1-.496-.496zm0 0" fill="#66bb6a"/></svg>
